!!!SOCIAL_FUNCTION:	children's songs
!!!PDT:	1918

Specific Region: Dakotas, Minnesota, Montana, Nebraska
!!!REG: Dakotas and Montana
!!!LING_GROUP: Siouan
!!!LANG: Tone
!!!OTL@ENG: Lullaby
!!!ONM: No. 217
**kern
*Ifeme
*clefG2
*k[b-]
*M2/4
*>[A,A]
*>norep[A]
*>A
=!|:
*MM66
8g
=1
4g
4f#
=2||
*M3/4
[2f
8.f]
16g
=3
8.f
16g
8.g
16g
8.f
16f
=4
[4d
4.d]
8e
=5||
*M2/4
4d
4g
=6||
*M3/4
[2f
8.f]
16f
=7
8.f
16g
8.g
16g
8.f
16f
=8
[2d
8.d]
16e
=9
4d
4g
4f#
=10
[2f
8.f]
16f
=11
8.f
16g
8.g
16g
8.f
16f
=12
[4d
4.d]
8d
=13
4d
4g
4f#
=14
[2f
8.f]
16g
=15
8.f
16g
8.g
16g
8.f
16f
=16
[4d
4.d]
==:|!
*-
!!!CNT: Native American -- Sioux
!!!MRD: 1911/07//-1914///
!!!OCL: Frances Densmore
!!!YOR1: Teton Sioux Music, Bulletin 61,
!!!YOR2: Bureau of American Ethnology, Smithsonian Institution
!!!PPR: Government Printing Office
!!!PPP: Washington, D.C.
!!!PDT: 1918///
!!!ENC: Craig Stuart Sapp
!!!END: 2002/03/25/
!!!EEV: 2002/03/31/
!!!AGN: Children's Song
!!!MPN@@SIO: Pahhi'wing
!!!MPN@ENG: Yellow Hair
!!!TXO: Teton Sioux
!!!MLC: Standing Rock Reservation, South Dakota, United States of America
!!!ARL: 45.9/-100.7#
!!!catalog: Catalogue No. 679
!!!PPG: 493
!!!EFL: 222/245
!!!VTS: 2680230082
